X:86
T:Larry O'Gaff
Z: id:dc-jig-69
M:6/8
L:1/8
K:G Major
f|g2G BAG|ded dBG|cec BdB|ABc def|!
g2G BAG|ded dBG|cec BdB|AGF G2:|!
B|def gfg|aba afd|dfg aga|bgf g2e|!
def gfe|ded dBG|cec BdB|[1 AGF G2:|[2 ABc de|]!